X:1
T:Title
%%score ( 1 2 3 ) { 4 | 5 }
L:1/8
Q:1/4=115
M:4/4
K:G
V:1 treble nm="Grand Piano, Unnamed-000"
V:2 treble 
V:3 treble 
V:4 treble nm="Choir Pad, Arnsberg"
V:5 bass 
V:1
 [GB]2 [GB]2 [GB]2 [GB]2 | A2- [FA-][EA] [FA]4 | [EG]2 [EG]2 [EG]2 [EG]2 | F4 z4 | %4
w: By~Joachim~~Neander,~1680 * * *||||
 E2 [CE]2 [B,D]2 [EG]2 | [FA]2 [GB]2 A2- [FA]2 | G8 | [GB]2 [GB]2 [GB]2 [GB]2 | %8
w: ||||
 A2- [FA-][EA] [FA]4 | [EG]2 [EG]2 [EG]2 [EG]2 | F4 z4 | E2 [CE]2 [B,D]2 [EG]2 | %12
w: ||||
 [FA]2 [GB]2 A2- [FA]2 | G8 | [DB]2 [DB]2 [Ec]4 | [FA]2 [FA]2 [GB]4 | [Fd]2 [Gd]2 [Gc]2 [GB]2 | %17
w: |||||
 A2- [FA]2 [GB]4 | z2 d2 z4 | A2- [FA]2 G4- | G4 z4 |] %21
w: ||||
V:2
 x8 | G2 z2 z4 | x8 | E2 ^D^C [DF]4 | x8 | z4 G2 z2 | x8 | x8 | G2 z2 z4 | x8 | E2 ^D^C [DF]4 | %11
 x8 | z4 G2 z2 | x8 | x8 | x8 | x8 | G2 z2 z4 | d2 z F [Ec]2 [GB]2 | G2 z2 z4 | x8 |] %21
V:3
 x8 | x8 | x8 | x8 | x8 | x8 | x8 | x8 | x8 | x8 | x8 | x8 | x8 | x8 | x8 | x8 | x8 | x8 | G4 z4 | %19
 x8 | x8 |] %21
V:4
 D2 D2 D2 D2 | D4 D4 | B,2 B,2 B,2 B,2 | B,4 B,4 | G,2 G,2 G,2 B,2 | D2 D2 D4 | B,8 | D2 D2 D2 D2 | %8
 D4 D4 | B,2 B,2 B,2 B,2 | B,4 B,4 | G,2 G,2 G,2 B,2 | D2 D2 D4 | B,8 | G,2[K:bass] G,2 G,4 | %15
 D2 D2 B,4 | D2 D2 E2 D2 | D4 D4 | G,2 B,2 C2 D2 | E2 DC B,4- | B,4 z4 |] %21
V:5
 G,2 G,2 B,2 G,2 | D,4 D,4 | E,2 E,2 G,2 E,2 | B,,4 B,,4 | C,2 E,2 z2 E,2 | D,2 G,2 D,4 | G,,8 | %7
 G,2 G,2 B,2 G,2 | D,4 D,4 | E,2 E,2 G,2 E,2 | B,,4 B,,4 | C,2 E,2 z2 E,2 | D,2 G,2 D,4 | G,,8 | %14
 z4 C,4 | D,2 D,2 G,4 | D,2 B,,2 C,2 G,2 | D,4 G,4 | B,,2 G,,2 A,,2 B,,2 | C,2 D,2 G,4- | G,4 z4 |] %21

